X: 69
T: Red Lyon
%%VWML:Wrights-3753-p35-0
F: http://www.vwml.org/record/Wrights/3753/p35
%R: minuet
B: Daniel Wright "Wright's Compleat Collection of Celebrated Country Dances" 1740 p.35
S: http://library.efdss.org/cgi-bin/dancebooks.cgi
Z: 2014 John Chambers <jc:trillian.mit.edu>
N: Repeats modified to match the "Each strain play'd twice" instruction.
M: 3/2
L: 1/8
K: Bb
%-------------------------
|:\
BdBd DEFD E2C2 | BdBd FBAc B2B,2 |\
BdBd DEFD E2gf | edcB FBAc B2B,2 :|
|:\
Bdgd BdcB A2F2 | DFBF GFGE D2B,2 |\
B2g2 B2f2 A2F2 | DFBF DBAc B4 :| %-------------------------
%%center Each strain play'd twice. A double Dance %%begintext align
%% The 1st Man & 2d Wo. meet turn S. & their hands %% 1st Wo. & 2d Man do the same, 1st Cu. cross over %% & half figure thro' 2d Cu. 1st & 2d Cu. right & left %% The 1st Man turn 2d Wo. & 1st wo. 2d Man, then %% turn Partners & do the same at the other Corners %% The 1st Man go round 3d Wo. then 1st Wo. round %% 2d Man & meet in the middle & turn, 1st Man go %% Round the 3d Man and the 1st Wo. round the
%% 2d Wo. and turn in the 2d Cu. Place. %%endtext %------------------------- %%sep 2 4 300
T: Tom's Maggot
T: Longways for as many as will.
%R: reel
B: Daniel Wright "Wright's Compleat Collection of Celebrated Country Dances" 1740 p.35
S: http://library.efdss.org/cgi-bin/dancebooks.cgi
Z: 2014 John Chambers <jc:trillian.mit.edu>
N: Repeats modified to match the "Each strain play'd twice" instruction.
M: C|
L: 1/8
K: D
%-------------------------
A2 |\
d2D2 F2D2 | A2 A,4 dc | Bcde EFGA | F2 D4 f2 |\
edcB cdef | G2 E4 D2 | ^C2A2 E2^G2 | A,6 :|
|: e2 |\
edcB cdef | ^G2 E4 fg | e2ed c3B | [d6B6] AG |\
F2D2 d2A2 | B2 G4 g2 | fdef A2c2 | d6 :|
%-------------------------
%%center Each strain play'd twice. A double Dance.
%%begintext align
%% The 1st Cu. cast of behind the 2d Cu. & then 3d Cu. then cast
%% up again to the Top, the 1st Cu. whole figure thro' the 2d Cu.
%% The 2d Cu. do the same, the 1st Man & 2d wo. meet & turn S. then
%% turn Hands, the 1st Wo. & 2d Man the same, The 1st Cu. lead
%% down behind 2d Cu. then behind 3d Cu. & turn, then lead
%% through to the Top, then cast of and turn in the 2d Cu.
%% Places
%%endtext
%-------------------------
%%sep 2 4 300
